!!!COM: Rimsky Korsakov, Nikolaï
!!!OPR: Pratical manual of harmony
!!!XEN: Modulation
!!!OTL: 3-23g. C Major to Db Major to C Major
!!!ENC: Laurent Feisthauer and Nestor Napoles Lopez
**kern	**kern	**kern	**kern
*staff2	*staff2	*staff1	*staff1
*clefF4	*clefG2	*clefG2	*clefG2
*k[]	*k[]	*k[]	*k[]
*C:	*C:	*C:	*C:
*M2/2	*M2/2	*M2/2	*M2/2
2C\	1c/	2e\	2g/
2F\	.	2f\	2a/
=1	=1	=1	=1
2D\	2F/	2f\	2b/
2C\	2G/	2e\	2cc/
=2	=2	=2	=2
1F\	2A/	1d\	2dd/
.	2A-/	.	2cc/
=3	=3	=3	=3
2G\	1G/	1d\	1b/
2F\	.	.	.
=4	=4	=4	=4
1E\	2G/	2c\	2cc/
.	2c/	2g\	2b-/
=5	=5	=5	=5
2F\	1c/	2f\	2a-/
2E-\	.	2g-\	2a-/
=6	=6	=6	=6
2D-\	1d-/	2f\	2a-/
2G-\	.	2g-\	2b-/
=7	=7	=7	=7
1E-\	2d-/	1g-\	2b-/
.	2c/	.	2a-/
=8	=8	=8	=8
2D-\	1A-/	1f\	2dd-/
2F\	.	.	2cc/
=9	=9	=9	=9
2G-\	2G-/	1d-\	2b-/
2F\	2A-/	.	2a-/
=10	=10	=10	=10
2D-\	2B-/	2f\	1g/
2C\	2c/	2e\	.
=11	=11	=11	=11
2A-\	1c/	2f\	2cc/
2G\	.	2e\	2b-/
=12	=12	=12	=12
2F\	2c/	1f\	2a-/
2D\	2b/	.	2g/
=13	=13	=13	=13
2C\	1c/	2e\	2g/
2E\	.	2g\	2cc/
=14	=14	=14	=14
1F\	2c/	2a\	2a/
.	2d/	2a-\	2b/
=15	=15	=15	=15
1C\	1e/	1g\	1cc/
==	==	==	==
!!!filter: satb2gs
!!!filter: autobeam
*-	*-	*-	*-
